X: 89
T:General Jackson. WI.089
M:C
L:1/8
Q:180
S:Wm Irwin, Folio MS, c1850. AGG's Transcription
R:Air
O:England
A:Lake District
N:"Is there anyone here knows General Jackson" "Yes I'm the man known as
N:General Jackson"
Z:vmp.Chris Partington.2005
K:G
Bc|d2b2 a2g2|d>ed>e (d2g2)|f>gf>g f2d'2|1g>ag>a g2:|2g2g2 g2||!
fg|a2b2 c'2d'2|a4z2fg|a2b2 c'2d'2|b4z2d'd'|!
d'2^c'2 g3g|b2a2 g3b^|c'>ba>g f>ed>c|d2d2d2:||!
d'c'|bd'gb d3c|Bdgb d'2z2|{^d'}e'2{d'}e'2f3a|1gfgb d'2:|2g2g2g2||!
"Voice"BA|AGE2 E2G2|DDD2 E2G2|"Played"g3b d'3b|a>ga>b a2G2|!
"Voice"G3E E2G2|DDD2 E2G2|"Played"g3b d'3b|a^gab =g2|]
